assets/svg/icon_checkbox_on.svg

<svg width="24" height="24" viewBox="0 0 24 24" fill="none" xmlns="http://www.w3.org/2000/svg">
<path d="M6.75391 2.99609C5.75934 2.99609 4.80552 3.39118 4.10226 4.09444C3.39899 4.7977 3.00391 5.75153 3.00391 6.74609V17.2461C3.00391 18.2407 3.39899 19.1945 4.10226 19.8977C4.80552 20.601 5.75934 20.9961 6.75391 20.9961H17.2539C18.2485 20.9961 19.2023 20.601 19.9056 19.8977C20.6088 19.1945 21.0039 18.2407 21.0039 17.2461V6.74609C21.0039 5.75153 20.6088 4.7977 19.9056 4.09444C19.2023 3.39118 18.2485 2.99609 17.2539 2.99609H6.75391ZM16.2849 10.2771L11.0349 15.5271C10.9652 15.5969 10.8825 15.6524 10.7914 15.6902C10.7002 15.728 10.6026 15.7474 10.5039 15.7474C10.4053 15.7474 10.3076 15.728 10.2165 15.6902C10.1253 15.6524 10.0426 15.5969 9.97291 15.5271L7.72291 13.2771C7.65317 13.2074 7.59786 13.1246 7.56012 13.0335C7.52238 12.9424 7.50296 12.8447 7.50296 12.7461C7.50296 12.6475 7.52238 12.5498 7.56012 12.4587C7.59786 12.3676 7.65317 12.2848 7.72291 12.2151C7.86374 12.0743 8.05474 11.9951 8.25391 11.9951C8.35252 11.9951 8.45017 12.0146 8.54128 12.0523C8.63239 12.09 8.71517 12.1454 8.78491 12.2151L10.5039 13.9356L15.2229 9.21509C15.3637 9.07426 15.5547 8.99515 15.7539 8.99515C15.9531 8.99515 16.1441 9.07426 16.2849 9.21509C16.4257 9.35592 16.5049 9.54693 16.5049 9.74609C16.5049 9.94526 16.4257 10.1363 16.2849 10.2771Z" fill="#1D46EB"/>
</svg>

<svg xmlns="http://www.w3.org/2000/svg" width="24" height="24" fill="none"><path fill="#1D46EB" d="M6.754 2.996a3.75 3.75 0 0 0-3.75 3.75v10.5a3.75 3.75 0 0 0 3.75 3.75h10.5a3.75 3.75 0 0 0 3.75-3.75v-10.5a3.75 3.75 0 0 0-3.75-3.75zm9.53 7.281-5.25 5.25a.75.75 0 0 1-1.061 0l-2.25-2.25a.75.75 0 1 1 1.062-1.062l1.719 1.72 4.719-4.72a.75.75 0 1 1 1.062 1.062"/></svg>
